src/4-icons/select.svg

<svg width="260" height="260" viewBox="0 0 260 260" fill="none" xmlns="http://www.w3.org/2000/svg">
<g opacity="0.9">
<path d="M149.682 82.212C152.385 85.5402 151.112 88.2438 146.822 88.2438H113.205C108.915 88.2438 107.615 85.5402 110.345 82.212L125.06 64.2974C127.79 60.9692 132.237 60.9692 134.967 64.2974L149.682 82.212Z" fill="black"/>
<path fill-rule="evenodd" clip-rule="evenodd" d="M195.285 98.878H65.0508C57.8744 98.9034 52.0762 104.702 52.0508 111.878V148.148C52.0772 155.324 57.8744 161.122 65.0508 161.148H195.285C202.461 161.123 208.259 155.324 208.285 148.148V111.878C208.285 104.676 202.487 98.878 195.285 98.878ZM197.132 149.968C196.637 150.463 196.014 150.723 195.312 150.723H65.0518C64.35 150.723 63.7254 150.437 63.2318 149.968C62.7382 149.473 62.4782 148.85 62.4518 148.123V111.879C62.4518 111.177 62.7382 110.554 63.2318 110.034C63.7254 109.539 64.35 109.279 65.0518 109.279H195.286C195.988 109.279 196.612 109.564 197.106 110.034C197.601 110.528 197.861 111.152 197.886 111.879V148.149C197.886 148.851 197.626 149.474 197.132 149.969V149.968Z" fill="black"/>
<path d="M135.304 195.338L150.019 177.424C152.749 174.096 151.449 171.393 147.159 171.393H113.515C109.225 171.393 107.952 174.096 110.655 177.424L125.371 195.338C128.126 198.666 132.573 198.666 135.303 195.338H135.304Z" fill="black"/>
</g>
</svg>

<svg width="260" height="260" fill="none" xmlns="http://www.w3.org/2000/svg"><g opacity=".9" fill="#000"><path d="M149.682 82.212c2.703 3.328 1.43 6.032-2.86 6.032h-33.617c-4.29 0-5.59-2.704-2.86-6.032l14.715-17.915c2.73-3.328 7.177-3.328 9.907 0l14.715 17.915Z"/><path fill-rule="evenodd" clip-rule="evenodd" d="M195.285 98.878H65.051c-7.177.025-12.975 5.824-13 13v36.27c.026 7.176 5.823 12.974 13 13h130.234c7.176-.025 12.974-5.824 13-13v-36.27c0-7.202-5.798-13-13-13Zm1.847 51.09a2.513 2.513 0 0 1-1.82.755H65.052c-.702 0-1.327-.286-1.82-.755-.494-.495-.754-1.118-.78-1.845v-36.244c0-.702.286-1.325.78-1.845a2.51 2.51 0 0 1 1.82-.755h130.234c.702 0 1.326.285 1.82.755.495.494.755 1.118.78 1.845v36.27c0 .702-.26 1.325-.754 1.82v-.001Z"/><path d="m135.304 195.338 14.715-17.914c2.73-3.328 1.43-6.031-2.86-6.031h-33.644c-4.29 0-5.563 2.703-2.86 6.031l14.716 17.914c2.755 3.328 7.202 3.328 9.932 0h.001Z"/></g></svg>
